svg/ghost-f.svg

<svg xmlns="http://www.w3.org/2000/svg" viewBox="0 0 48 64" enable-background="new 0 0 48 64"><style type="text/css">.st0{fill:#343434;}</style><title>ghost-f</title><desc>Created with Sketch.</desc><path class="st0" d="M24 0c-13.3 0-24 10.7-24 24v40l8.1-8 8 8 5.1-5.2 2.8-2.8 2.8 2.8 5.2 5.2 5.2-5.2 2.8-2.8 2.8 2.8 5.2 5.2v-40c0-13.3-10.7-24-24-24zm-10 28c-3.3 0-6-2.7-6-6s2.7-6 6-6 6 2.7 6 6-2.7 6-6 6zm20 0c-3.3 0-6-2.7-6-6s2.7-6 6-6 6 2.7 6 6-2.7 6-6 6z"/></svg>

<?xml version="1.0" encoding="utf-8"?>
<!-- Generator: Adobe Illustrator 21.0.0, SVG Export Plug-In . SVG Version: 6.00 Build 0)  -->
<svg version="1.1" id="Layer_1" xmlns="http://www.w3.org/2000/svg" xmlns:xlink="http://www.w3.org/1999/xlink" x="0px" y="0px"
	 viewBox="0 0 48 64" style="enable-background:new 0 0 48 64;" xml:space="preserve">
<style type="text/css">
	.st0{fill:#343434;}
</style>
<title>ghost-f</title>
<desc>Created with Sketch.</desc>
<path class="st0" d="M24,0C10.7,0,0,10.7,0,24v40l8.1-8l8,8l5.1-5.2L24,56l2.8,2.8L32,64l5.2-5.2l2.8-2.8l2.8,2.8L48,64V24
	C48,10.7,37.3,0,24,0z M14,28c-3.3,0-6-2.7-6-6s2.7-6,6-6s6,2.7,6,6S17.3,28,14,28z M34,28c-3.3,0-6-2.7-6-6s2.7-6,6-6s6,2.7,6,6
	S37.3,28,34,28z"/>
</svg>
